static/images/mobile/copyright/wikipedia-wordmark-csb.svg

<?xml version="1.0" encoding="UTF-8"?>
<svg width="120px" height="26px" viewBox="0 0 120 26" version="1.1" xmlns="http://www.w3.org/2000/svg" xmlns:xlink="http://www.w3.org/1999/xlink">
    <title>csb-wordmark</title>
    <g id="Page-1" stroke="none" stroke-width="1" fill="none" fill-rule="evenodd">
        <path d="M17.1088572,4.36987246 C17.1739253,4.36995299 17.238283,4.37004012 17.301736,4.37013263 L17.6700408,4.37074217 C17.7290968,4.37085119 17.7868591,4.3709631 17.8431331,4.37107667 L18.1613626,4.37176798 C18.2109058,4.37188319 18.2585718,4.37199759 18.3041661,4.37210991 L18.5513155,4.37274919 C18.5878451,4.3728483 18.621914,4.37294287 18.6533278,4.37303166 L18.9011025,4.37374478 L18.9553897,4.42672269 L18.9553897,4.92251939 C18.9553897,5.05945621 18.8820486,5.12744117 18.7372698,5.12744117 C18.0267172,5.16243077 17.8809876,5.2363984 17.6209588,5.62925076 C17.4790384,5.84416382 17.1990078,6.304981 16.9085005,6.82177749 L14.4148967,11.7158588 C14.4148967,11.7158588 14.3906095,11.7691062 14.3455048,11.8678011 L17.392347,18.4132638 L17.5771281,18.4662417 L22.37765,6.50994306 C22.544334,6.02812609 22.5186165,5.68626749 22.3043169,5.48534423 C22.0890553,5.2894166 21.937611,5.17346951 21.3813601,5.14947837 L20.9308343,5.12550738 C20.8755902,5.12550738 20.8232045,5.10455794 20.7727214,5.06547917 C20.7231982,5.0285155 20.6974747,4.97946561 20.6974747,4.92053524 L20.6974747,4.42273424 L20.7660539,4.3717707 L26.1894993,4.3717707 L26.2447434,4.42273424 L26.2447434,4.92053524 C26.2447434,5.05547783 26.1714103,5.12345272 26.0266244,5.12345272 C25.3160708,5.15648838 24.7893475,5.31838323 24.4483581,5.60726392 C24.1064159,5.89814891 23.8397205,6.29899832 23.6482718,6.81979334 L23.6180919,6.89227742 C23.2278359,7.82949007 19.1604112,17.5951677 17.7228667,20.9492439 C17.1447085,22.1047868 16.5760762,21.998831 16.0760211,20.9162082 C15.4498071,19.5627101 14.1494003,16.5773498 13.1942548,14.3706661 C12.9107656,14.986494 12.5968612,15.6636777 12.2770666,16.349281 L12.0397686,16.8572169 C11.2871462,18.4655442 10.5338926,20.0488303 10.0810931,20.9302383 C9.40673468,22.1607963 8.85143654,21.9998583 8.40948393,20.9622668 C7.73432513,19.2904809 6.74623786,17.0627018 5.72498051,14.7733984 L5.16632294,13.5215579 C4.04915459,11.0175618 2.95304487,8.54733936 2.24119627,6.75284578 C1.96687998,6.06411279 1.76019089,5.62229112 1.56493153,5.44735322 C1.36871988,5.2744297 0.961056569,5.17042781 0.340989302,5.13547851 C0.113345636,5.10949314 0,5.0515196 0,4.95754927 L0,4.43675425 L0.055243069,4.38579071 C0.116432965,4.38542446 0.191862019,4.3851026 0.279579518,4.38482111 L0.577646627,4.38409365 C0.632818463,4.38399125 0.69057473,4.38389792 0.75067159,4.38381317 L3.98191309,4.38391204 C4.05975403,4.38396854 4.13652182,4.38402656 4.21197261,4.38408558 L5.2144797,4.38498355 C5.27066453,4.38504005 5.32431316,4.38509504 5.37518176,4.38514801 L5.95112052,4.38579071 L6.0063646,4.43675425 L6.0063646,4.93256102 C6.0063646,5.06950791 5.92349748,5.13547851 5.76062263,5.13547851 L5.14531844,5.16247105 C4.61764133,5.18546508 4.35380327,5.35139874 4.35380327,5.65827782 C4.35380327,5.80121747 4.40904735,6.0331318 4.53191783,6.34600362 C4.96705297,7.45856573 5.79560088,9.38656991 6.6686158,11.3781515 L6.91895719,11.9482554 C8.34099876,15.1812862 9.79248841,18.3932712 9.79248841,18.3932712 L9.94202813,18.4342636 L12.5716784,12.9297338 C12.3501206,12.4160437 12.1838752,12.0296305 12.1019139,11.8389987 L12.0596423,11.7406546 C12.0500638,11.7183633 12.0451082,11.7068243 12.0451082,11.7068243 L10.2372924,7.97829737 C10.2372883,7.97836788 10.1498982,7.79194052 10.0476254,7.57452462 L9.94307717,7.35253618 C9.87365171,7.20533354 9.80835358,7.06738618 9.76866648,6.98475004 C8.97429493,5.33240324 8.99143923,5.24443574 8.18849554,5.13348428 C7.96370905,5.10246299 7.84750614,5.07254961 7.84750614,4.95555505 L7.84750614,4.43275573 L7.91512851,4.38179219 L8.60369718,4.38106834 C8.66734225,4.38101672 8.73227977,4.38096716 8.79830451,4.38091959 L10.8999851,4.38000445 C10.9672315,4.37998826 11.0335128,4.37997323 11.0986238,4.37995927 L12.5937317,4.37977782 L12.717554,4.4227846 L12.717554,4.94357962 C12.717554,5.06252812 12.6365864,5.12350308 12.471813,5.12350308 L12.1327282,5.17446662 C11.2754932,5.24446595 11.415508,5.61228978 11.9850931,6.80282228 L13.719,10.526 L15.6378848,6.51194736 C15.9359448,5.82971575 15.9005656,5.62239913 15.7879884,5.46020602 L15.7607552,5.42338223 C15.6845557,5.32741768 15.4292908,5.17445655 14.8739926,5.15048556 L14.6558737,5.12550738 C14.6006286,5.12550738 14.5492038,5.1054644 14.4987136,5.06648636 C14.4491803,5.02950254 14.4244136,4.98147998 14.4244136,4.92054531 L14.4244136,4.42473854 L14.492036,4.373775 C14.7730518,4.37169117 15.1265198,4.37046961 15.5104305,4.36984273 Z M29.8613278,9.58274247 L29.8860945,9.63471319 L29.8860945,10.2064919 C29.8860945,10.284448 29.8365712,10.3364389 29.7375065,10.3364389 L29.2174508,10.3894168 C28.4497485,10.4663657 28.1773383,10.6753061 28.1773383,11.1961011 L28.1773383,19.8506976 C28.1773302,20.4224763 28.4249758,20.7603464 29.2174427,20.8383126 L29.7374985,20.8912905 C29.8117985,20.8912905 29.8860945,20.942254 29.8860945,21.0462358 L29.8860945,21.592019 L29.8613197,21.6449969 C29.8613197,21.6449969 28.1541916,21.5969444 27.3284379,21.592368 L27.2115087,21.592019 C26.5181003,21.592019 24.5864622,21.6449969 24.5864622,21.6449969 L24.536939,21.592019 L24.536939,21.0462358 C24.536939,20.9422742 24.611239,20.8912905 24.7102916,20.8912905 L25.2055827,20.8383126 C26.0228153,20.7603565 26.2704608,20.3445101 26.2704608,19.8506976 L26.2704608,11.1961011 C26.2704608,10.6253196 25.9723332,10.4673829 25.2055827,10.3914211 L24.7102916,10.337436 C24.611235,10.337436 24.536939,10.313465 24.536939,10.2334744 L24.536939,9.63471319 L24.5617056,9.58274247 C24.5617056,9.58274247 26.3362206,9.62988145 27.1683921,9.63437088 L27.2858107,9.63471319 C27.519836,9.63471319 27.9055444,9.62834678 28.3080897,9.62007044 L28.6541067,9.61261264 C29.2844986,9.59846361 29.8613278,9.58274247 29.8613278,9.58274247 Z M35.4857418,19.8506976 C35.4857418,20.4224763 35.8076813,20.7083656 36.5258543,20.8383126 L36.7982645,20.8912905 C36.8725645,20.9162687 36.9468534,20.942254 36.9468534,21.0462358 L36.9468534,21.592019 L36.9220868,21.6449969 C36.9220868,21.6449969 35.3619175,21.592019 34.6189799,21.592019 C33.9255715,21.592019 31.8948748,21.6449969 31.8948748,21.6449969 L31.8453516,21.592019 L31.8453516,21.0462358 C31.8453516,20.9422742 31.9196516,20.8912905 32.0187031,20.8912905 L32.5139962,20.8383126 C33.2569339,20.7603565 33.5788734,20.3445101 33.5788734,19.8506976 L33.5788734,11.1961011 C33.5788734,10.6253196 33.3064632,10.4673829 32.5139962,10.3914211 L32.0187031,10.337436 C31.9196465,10.337436 31.8453516,10.313465 31.8453516,10.2334744 L31.8453516,9.63471319 L31.8701182,9.58274247 C31.8701182,9.58274247 33.9008149,9.63471319 34.6685162,9.63471319 C35.3628784,9.63471319 36.9220948,9.58274247 36.9220948,9.58274247 L36.9468615,9.63471319 L36.9468615,10.2064919 C36.9468615,10.284448 36.8973382,10.3104434 36.7982736,10.3364389 L36.5258634,10.3894168 C35.7581611,10.544352 35.4857509,10.6753061 35.4857509,11.1961011 L35.4857509,15.1205557 C36.3029825,15.1205557 36.7735089,14.6797312 37.8631517,13.4572105 C38.8537349,12.312666 39.6214382,11.3530407 39.6214382,10.858231 C39.6214382,10.6493107 39.3985563,10.4164093 38.9032642,10.337436 C38.8042076,10.3124578 38.7546763,10.2854652 38.7546763,10.207489 L38.7546763,9.60872783 L38.779443,9.58374965 C38.779443,9.58374965 40.785375,9.63572038 41.503548,9.63572038 C42.147428,9.63572038 43.2370699,9.58374965 43.2370699,9.58374965 L43.3113699,9.60872783 L43.3113699,10.207489 C43.3113699,10.2854451 43.2370699,10.337436 43.1132536,10.337436 C42.1474351,10.4153921 41.4787904,10.4673829 40.5872658,11.5329641 L38.4575105,14.1049611 C38.0365124,14.5737753 37.8879255,14.8586575 37.8879255,15.0675778 C37.8879255,15.2235202 37.9869821,15.35247 38.1108063,15.5084024 L41.8502592,20.2385442 C42.1474351,20.6014026 42.7417848,20.7583421 43.2370769,20.8613066 L43.3608992,20.8862848 C43.4351992,20.9122701 43.5342518,20.9642409 43.5342518,21.0422272 L43.5342518,21.5880104 L43.4599518,21.6139958 C43.4599518,21.6139958 42.1474291,21.5880104 41.4540197,21.5880104 C40.8349053,21.5880104 39.9433808,21.6139958 39.9433808,21.6139958 L39.9186141,21.5880104 L39.9186141,21.2761357 C39.9186141,20.9372685 39.8938474,20.6533733 39.5471453,20.237537 L36.7982746,16.6499454 C36.4268057,16.1291504 36.0305723,16.0012077 35.4857519,16.0012077 L35.4857519,19.8506875 L35.4857519,19.8506875 L35.4857418,19.8506976 Z M48.8367142,19.8506976 C48.8367142,20.4224763 49.0843597,20.7603464 49.8768267,20.8383126 L50.3968824,20.8912905 C50.4711824,20.8912905 50.5454784,20.942254 50.5454784,21.0462358 L50.5454784,21.592019 L50.5207037,21.6449969 C50.5207037,21.6449969 48.6385949,21.592019 47.8708926,21.592019 C47.1774843,21.592019 45.2458462,21.6449969 45.2458462,21.6449969 L45.1963229,21.592019 L45.1963229,21.0462358 C45.1963229,20.9422742 45.2706229,20.8912905 45.3696745,20.8912905 L45.8649666,20.8383126 C46.6821982,20.7603565 46.9298438,20.3445101 46.9298438,19.8506976 L46.9298438,11.1961011 C46.9298438,10.6253196 46.6326689,10.4673829 45.8649666,10.3914211 L45.3696745,10.337436 C45.2706179,10.337436 45.1963229,10.313465 45.1963229,10.2334744 L45.1963229,9.63471319 L45.2210896,9.58274247 C45.2210896,9.58274247 47.1774923,9.63471319 47.9451936,9.63471319 C48.6138383,9.63471319 50.5207117,9.58274247 50.5207117,9.58274247 L50.5454784,9.63471319 L50.5454784,10.2064919 C50.5454784,10.284448 50.4959551,10.3364389 50.3968905,10.3364389 L49.8768347,10.3894168 C49.1091324,10.4663657 48.8367222,10.6753061 48.8367222,11.1961011 L48.8367222,19.8506976 L48.8367142,19.8506976 Z M54.1877702,11.2470848 C54.1877702,10.4413976 53.8658307,10.4154021 52.7018939,10.337436 C52.553307,10.337436 52.5285423,10.2604871 52.5285423,10.207489 L52.5285423,9.60972494 L52.5780656,9.58373958 C52.9495354,9.58373958 54.4106451,9.63571031 55.1288191,9.63571031 C55.8222274,9.63571031 56.8128106,9.58373958 57.7291008,9.58373958 C61.2437672,9.58373958 61.8876463,11.4020301 61.8876463,12.7554949 C61.8876463,14.3158857 61.1694743,16.7579257 57.6548069,16.7579257 C57.0356915,16.7579257 56.5404004,16.7049478 56.0936848,16.4980318 L56.0936848,19.9786604 C56.0936848,20.5504391 56.3908607,20.6813831 57.1842794,20.810333 L57.6805243,20.8882891 C57.7795809,20.9142744 57.8538759,20.941267 57.8538759,21.0442315 L57.8538759,21.5900147 L57.830066,21.6419855 C57.830066,21.6419855 55.8488987,21.5900147 55.0811964,21.5900147 C54.387787,21.5900147 52.5304439,21.6419855 52.5304439,21.6419855 L52.5056772,21.5900147 L52.5056772,21.0442315 C52.5056772,20.9402699 52.5552005,20.9142845 52.6542652,20.8882891 L53.1743209,20.810333 C53.9420232,20.7063714 54.1896688,20.4724628 54.1896688,19.9786604 L54.1877551,11.2470949 L54.1877551,11.2470949 L54.1877702,11.2470848 Z M56.0946436,15.7703006 C56.5899357,15.9792209 57.2090501,16.0042091 57.7043422,16.0042091 C59.1911693,16.0042091 59.9064849,15.0665807 59.9064849,13.0673696 C59.9064849,10.8322456 58.9406664,10.3384331 57.5805199,10.3384331 C56.3908667,10.3384331 56.0936908,10.5723416 56.0936908,11.2480819 L56.0946436,15.7703006 L56.0946436,15.7703006 L56.0946436,15.7703006 Z M66.1528767,21.592019 C65.4099401,21.592019 63.7021347,21.6449969 63.7021347,21.6449969 L63.6764212,21.592019 L63.6764212,21.0202403 C63.6764212,20.9692768 63.7021347,20.8912905 63.8250082,20.8912905 L64.395547,20.8383126 C65.1642021,20.7603565 65.387083,20.2405485 65.387083,19.7217477 L65.387083,11.1451175 C65.387083,10.5453592 65.0889554,10.4423947 64.395547,10.3914211 L63.8250082,10.337436 C63.6764212,10.313465 63.6764212,10.2604871 63.6764212,10.2334744 L63.6764212,9.63471319 L63.7021347,9.58274247 C63.7021347,9.58274247 65.632821,9.63471319 66.3757596,9.63471319 L70.0161539,9.63471319 C70.7590905,9.63471319 72.5183298,9.58274247 72.5183298,9.58274247 L72.56882,9.63471319 C72.5926298,10.7522752 72.7659844,11.7678799 72.9402888,12.7544877 L72.3221272,12.8584493 C72.0506688,11.8958225 71.5801414,10.5193637 69.9952075,10.5193637 L68.0140401,10.5193637 C67.5435136,10.5193637 67.2958671,10.7012915 67.2958671,11.1421261 L67.2958671,14.9116455 L69.1522594,14.9116455 C69.8466205,14.9116455 70.0190203,14.5997607 70.1190307,14.0799628 L70.2666659,13.5341795 C70.2666659,13.4562234 70.317156,13.4032354 70.4152528,13.4032354 L70.8352981,13.4032354 C70.8857883,13.4032354 70.8857883,13.430228 70.8857883,13.4811915 C70.8352981,14.0529702 70.7372004,14.7816784 70.7372004,15.4054379 C70.7372004,16.0541856 70.836257,16.600966 70.8857883,17.1987301 L70.8352981,17.251708 L70.4152528,17.251708 C70.2923823,17.251708 70.2409484,17.1987301 70.2409484,17.1207639 L70.1171261,16.5499924 C70.0180695,16.0291873 69.7951866,15.743308 69.149402,15.743308 L67.2939625,15.743308 L67.2939625,19.7207405 C67.2939625,20.2135459 67.5644681,20.7073584 68.0121355,20.7073584 L70.3647717,20.7073584 C71.6277661,20.7073584 72.3221272,19.8756858 72.6183493,18.5232081 L73.2365119,18.6011642 L72.740268,21.5889874 L72.6907447,21.6409581 C72.6907447,21.6409581 71.2296331,21.5889874 70.4866954,21.5889874 L66.1528918,21.592009 L66.1528918,21.592009 L66.1528767,21.592019 Z M75.4662685,20.8912905 L76.0358546,20.8383126 C76.779744,20.7603565 77.0273896,20.5264379 77.0273896,19.7217477 L77.0273896,11.1451175 C77.0273896,10.4673829 76.8521334,10.4673829 76.0358546,10.3914211 L75.4929388,10.337436 C75.3938822,10.337436 75.3176806,10.2854652 75.3176806,10.207489 L75.3176806,9.63571031 L75.3414905,9.58373958 C75.3414905,9.58373958 77.5217269,9.63571031 77.9684435,9.63571031 C78.4370653,9.63571031 80.5934899,9.58373958 81.2373689,9.58373958 C85.3730553,9.58373958 87.4047048,12.2866807 87.4047048,15.7433282 C87.4047048,20.2925394 84.3329418,21.6420056 81.5850249,21.6420056 C79.6038575,21.6420056 78.7380504,21.5900349 77.9703481,21.5900349 C77.2264566,21.5900349 75.3443488,21.6420056 75.3443488,21.6420056 L75.3195822,21.5900349 L75.3195822,21.0442516 C75.3176806,20.9693171 75.3681587,20.8913106 75.4662645,20.8913106 L75.4662685,20.8912905 Z M80.9897254,20.8912905 C83.7128776,20.8912905 85.2501868,19.8267064 85.2501868,16.1861369 C85.2501868,13.484203 84.6796479,10.337436 80.5191979,10.337436 C79.5533784,10.337436 78.934264,10.4933784 78.934264,11.1451175 L78.934264,19.7217477 C78.934264,20.4474645 79.1066638,20.8912905 80.9897254,20.8912905 Z M93.2510519,19.8506976 C93.2510519,20.4224763 93.4986985,20.7603464 94.2911614,20.8383126 L94.8112212,20.8912905 C94.8855514,20.8912905 94.9598111,20.942254 94.9598111,21.0462358 L94.9598111,21.592019 L94.9350344,21.6449969 C94.9350344,21.6449969 93.0529286,21.592019 92.2861811,21.592019 C91.591816,21.592019 89.6611317,21.6449969 89.6611317,21.6449969 L89.6106415,21.592019 L89.6106415,21.0462358 C89.6106415,20.9422742 89.6849415,20.8912905 89.7839941,20.8912905 L90.280238,20.8383126 C91.0965168,20.7603565 91.3451162,20.3445101 91.3451162,19.8506976 L91.3451162,11.1961011 C91.3451162,10.6253196 91.0469875,10.4673829 90.280238,10.3914211 L89.7839941,10.337436 C89.6849375,10.337436 89.6106415,10.313465 89.6106415,10.2334744 L89.6106415,9.63471319 L89.6354082,9.58274247 C89.6354082,9.58274247 91.5918059,9.63471319 92.3576066,9.63471319 C93.0262483,9.63471319 94.9340776,9.58274247 94.9340776,9.58274247 L94.9578471,9.63471319 L94.9578471,10.2064919 C94.9578471,10.284448 94.9072864,10.3364389 94.8092572,10.3364389 L94.2892075,10.3894168 C93.5215011,10.4663657 93.2490879,10.6753061 93.2490879,11.1961011 L93.2511023,19.8506976 L93.2511023,19.8506976 L93.2510519,19.8506976 Z M112.506418,0.147622346 C112.106752,-0.0358820195 111.88195,-0.0620969289 111.532243,0.147622346 C110.757911,1.0389088 109.93361,1.9564204 109.009403,2.6904174 C109.059323,2.92635158 109.134299,3.0836308 109.359101,3.24092026 C110.308297,2.79527703 111.107608,2.34963381 112.031815,1.64184148 C112.856116,2.29720399 113.705385,2.76906212 114.67955,3.24092026 C114.904362,3.1622346 115.004279,2.95256649 115.079216,2.6904174 C114.179978,1.98262507 113.255771,1.09133862 112.506418,0.147622346 M111.632159,4.97107358 C115.029248,4.97107358 117.602056,7.74981305 117.602056,13.2024016 C117.602056,17.8947783 115.453893,20.6997327 112.606325,20.6997327 C109.608892,20.6997327 106.686387,17.7899289 106.686387,12.7567584 C106.686387,7.25174 109.359111,4.97107358 111.632159,4.97107358 M120,12.7043286 C120,7.51387886 116.328141,4.07978713 111.956888,4.07978713 C107.485708,4.07978713 104.288442,8.06438173 104.288442,13.2024016 C104.288442,18.3666467 107.810436,21.5910192 112.106752,21.5910192 C116.877672,21.5910192 120,17.9472082 120,12.7043286 M101.498304,11.9027519 C101.498304,10.3134952 101.840119,10.2177522 103.046526,10.1603125 C103.167169,10.0454229 103.167169,9.64332462 103.046526,9.52843507 C102.061301,9.54757158 101.578736,9.56670809 100.633712,9.56670809 C99.5479495,9.56670809 98.8442131,9.54757158 97.8388725,9.52843507 C97.7182392,9.64332462 97.7182392,10.0454229 97.8388725,10.1603125 C99.4474112,10.217722 99.7892371,10.3134952 99.7892371,11.9027519 L99.7892371,20.3660538 C99.7892371,23.8126395 98.7436854,24.3487841 98.0801602,24.3487841 C97.7986614,24.3487841 97.5171732,24.1956013 97.3764238,24.0041255 C97.1753578,23.7551998 97.0949251,23.3531015 96.4716215,23.3531015 C96.1901227,23.3531015 95.5869247,23.7551998 95.5869247,24.1764548 C95.5869247,24.8657719 96.6525819,25.2104305 97.0949251,25.2104305 C97.9997274,25.2104305 98.6230416,25.0572478 99.4474217,24.3870772 C100.312002,23.6786135 101.498304,22.6829208 101.498304,19.9447988 L101.498304,11.9027519" id="csb-wordmark" fill="#000000" fill-rule="nonzero"></path>
    </g>
</svg>

<svg xmlns="http://www.w3.org/2000/svg" width="120" height="26"><path fill="#000" fill-rule="nonzero" d="M17.109 4.37H17.67l.173.001h.318l.143.001h.247l.102.001h.248l.054.054v.496c0 .136-.073.204-.218.204-.71.035-.856.11-1.116.502-.142.215-.422.676-.712 1.193l-2.494 4.894-.07.152 3.047 6.545.185.053 4.8-11.956c.167-.482.142-.824-.073-1.025-.215-.196-.366-.312-.923-.336l-.45-.023a.256.256 0 0 1-.158-.06.175.175 0 0 1-.076-.145v-.498l.07-.051h5.422l.056.05v.499c0 .134-.074.202-.218.202-.71.033-1.238.195-1.579.484-.342.291-.608.692-.8 1.213l-.03.072c-.39.937-4.458 10.703-5.895 14.057-.578 1.156-1.147 1.05-1.647-.033-.626-1.353-1.927-4.339-2.882-6.545-.283.615-.597 1.293-.917 1.978l-.237.508c-.753 1.609-1.506 3.192-1.959 4.073-.674 1.23-1.23 1.07-1.672.032-.675-1.672-1.663-3.9-2.684-6.189l-.559-1.251c-1.117-2.504-2.213-4.975-2.925-6.77-.274-.688-.48-1.13-.676-1.305C1.369 5.274.96 5.17.34 5.135.113 5.11 0 5.052 0 4.958v-.521l.055-.051.225-.001h.298l.173-.001h3.461l1.002.001h.737l.055.052v.496c0 .137-.083.202-.245.202l-.616.027c-.527.023-.791.19-.791.496 0 .143.055.375.178.688.435 1.113 1.264 3.04 2.137 5.032l.25.57a804.127 804.127 0 0 0 2.873 6.445l.15.041 2.63-5.504-.47-1.091-.042-.098-.015-.034-1.808-3.729-.19-.403-.104-.222a68.25 68.25 0 0 0-.174-.368c-.795-1.653-.778-1.74-1.58-1.852-.225-.03-.341-.06-.341-.177v-.523l.067-.051h.689l.194-.001L10.9 4.38H12.594l.124.043v.52c0 .12-.081.18-.246.18l-.34.051c-.857.07-.716.438-.147 1.629l1.734 3.723 1.919-4.014c.298-.682.263-.89.15-1.052l-.027-.037c-.076-.096-.332-.249-.887-.273l-.218-.024a.253.253 0 0 1-.157-.06.173.173 0 0 1-.075-.145v-.496l.068-.051c.281-.002.635-.004 1.018-.004ZM29.86 9.583l.025.052v.571c0 .078-.05.13-.148.13l-.52.053c-.768.077-1.04.286-1.04.807v8.655c0 .571.247.91 1.04.987l.52.053c.074 0 .148.051.148.155v.546l-.025.053s-1.707-.048-2.533-.053h-.116c-.694 0-2.626.053-2.626.053l-.05-.053v-.546c0-.104.075-.155.174-.155l.496-.053c.817-.078 1.064-.493 1.064-.987v-8.655c0-.57-.298-.729-1.064-.805l-.496-.054c-.099 0-.173-.024-.173-.104v-.598l.025-.052s1.774.047 2.606.051h.118c.234 0 .62-.006 1.022-.014l.346-.007 1.207-.03Zm5.625 10.268c0 .571.322.857 1.04.987l.272.053c.075.025.149.051.149.155v.546l-.025.053s-1.56-.053-2.303-.053c-.693 0-2.724.053-2.724.053l-.05-.053v-.546c0-.104.075-.155.174-.155l.495-.053c.743-.078 1.065-.493 1.065-.987v-8.655c0-.57-.273-.729-1.065-.805l-.495-.054c-.1 0-.174-.024-.174-.104v-.598l.025-.052s2.03.052 2.799.052c.694 0 2.253-.052 2.253-.052l.025.052v.571c0 .078-.05.104-.149.13l-.272.053c-.768.155-1.04.286-1.04.807v3.925c.817 0 1.288-.441 2.377-1.664.99-1.144 1.758-2.104 1.758-2.599 0-.209-.222-.442-.718-.52-.099-.026-.148-.053-.148-.13v-.6l.024-.024s2.006.052 2.725.052c.643 0 1.733-.052 1.733-.052l.074.025v.598c0 .078-.074.13-.198.13-.966.078-1.634.13-2.526 1.196l-2.13 2.572c-.42.469-.57.754-.57.963 0 .156.1.284.224.44l3.74 4.73c.296.363.89.52 1.386.623l.124.025c.074.026.173.078.173.156v.546l-.074.026s-1.313-.026-2.006-.026c-.62 0-1.51.026-1.51.026l-.025-.026v-.312c0-.339-.025-.623-.372-1.038l-2.749-3.588c-.371-.52-.767-.649-1.312-.649v3.85Zm13.35 0c0 .571.248.91 1.04.987l.52.053c.075 0 .15.051.15.155v.546l-.025.053s-1.882-.053-2.65-.053c-.694 0-2.625.053-2.625.053l-.05-.053v-.546c0-.104.075-.155.174-.155l.495-.053c.817-.078 1.065-.493 1.065-.987v-8.655c0-.57-.297-.729-1.065-.805l-.495-.054c-.1 0-.174-.024-.174-.104v-.598l.025-.052s1.956.052 2.724.052c.669 0 2.576-.052 2.576-.052l.024.052v.571c0 .078-.049.13-.148.13l-.52.053c-.768.077-1.04.286-1.04.807v8.655Zm5.352-8.604c0-.806-.322-.832-1.486-.91-.149 0-.173-.077-.173-.13V9.61l.05-.026c.37 0 1.832.052 2.55.052.693 0 1.684-.052 2.6-.052 3.515 0 4.159 1.818 4.159 3.171 0 1.56-.719 4.003-4.233 4.003-.62 0-1.115-.053-1.561-.26v3.48c0 .572.297.703 1.09.832l.497.078c.099.026.173.053.173.156v.546l-.024.052s-1.981-.052-2.749-.052c-.693 0-2.55.052-2.55.052l-.025-.052v-.546c0-.104.05-.13.148-.156l.52-.078c.768-.104 1.016-.338 1.016-.831l-.002-8.732Zm1.907 4.523c.495.21 1.114.234 1.61.234 1.486 0 2.201-.937 2.201-2.937 0-2.235-.965-2.729-2.325-2.729-1.19 0-1.487.234-1.487.91v4.522Zm10.058 5.822c-.743 0-2.45.053-2.45.053l-.027-.053v-.572c0-.05.026-.129.149-.129l.57-.053c.77-.078.992-.597.992-1.116v-8.577c0-.6-.298-.703-.991-.754l-.571-.054c-.149-.024-.149-.077-.149-.104v-.598l.026-.052s1.93.052 2.674.052h3.64c.743 0 2.502-.052 2.502-.052l.05.052c.025 1.117.198 2.133.372 3.12l-.618.103c-.271-.962-.742-2.339-2.327-2.339h-1.981c-.47 0-.718.182-.718.623v3.77h1.856c.695 0 .867-.312.967-.832l.148-.546c0-.078.05-.13.148-.13h.42c.05 0 .05.026.05.077-.05.572-.148 1.3-.148 1.924 0 .65.1 1.196.149 1.794l-.05.053h-.42c-.124 0-.175-.053-.175-.131l-.124-.571c-.099-.52-.322-.807-.968-.807h-1.855v3.978c0 .493.27.986.718.986h2.353c1.263 0 1.957-.831 2.253-2.184l.619.078-.497 2.988-.05.052s-1.46-.052-2.203-.052l-4.334.003Zm9.313-.7.57-.054c.744-.078.991-.312.991-1.116v-8.577c0-.678-.175-.678-.991-.754l-.543-.054c-.1 0-.175-.052-.175-.13v-.571l.023-.052s2.18.052 2.627.052c.47 0 2.625-.052 3.27-.052 4.135 0 6.167 2.703 6.167 6.16 0 4.549-3.072 5.898-5.82 5.898-1.981 0-2.847-.052-3.615-.052-.744 0-2.626.052-2.626.052l-.024-.052v-.546c-.002-.075.048-.153.146-.153Zm5.524 0c2.723 0 4.26-1.065 4.26-4.706 0-2.702-.57-5.849-4.73-5.849-.967 0-1.586.156-1.586.808v8.577c0 .725.173 1.17 2.056 1.17ZM93.25 19.85c0 .571.248.91 1.04.987l.52.053c.075 0 .149.051.149.155v.546l-.025.053s-1.882-.053-2.649-.053c-.694 0-2.625.053-2.625.053l-.05-.053v-.546c0-.104.074-.155.173-.155l.496-.053c.817-.078 1.065-.493 1.065-.987v-8.655c0-.57-.298-.729-1.065-.805l-.496-.054c-.1 0-.173-.024-.173-.104v-.598l.024-.052s1.957.052 2.723.052c.668 0 2.576-.052 2.576-.052l.024.052v.571c0 .078-.05.13-.149.13l-.52.053c-.767.077-1.04.286-1.04.807l.002 8.655ZM112.506.148c-.4-.184-.624-.21-.974 0-.774.89-1.598 1.808-2.523 2.542.05.236.125.394.35.55.95-.445 1.749-.89 2.673-1.598.824.655 1.673 1.127 2.648 1.599.224-.079.324-.288.4-.55-.9-.708-1.824-1.6-2.574-2.543m-.874 4.823c3.397 0 5.97 2.779 5.97 8.231 0 4.693-2.148 7.498-4.996 7.498-2.997 0-5.92-2.91-5.92-7.943 0-5.505 2.673-7.786 4.946-7.786M120 12.704c0-5.19-3.672-8.624-8.043-8.624-4.471 0-7.669 3.984-7.669 9.122 0 5.165 3.522 8.389 7.819 8.389 4.77 0 7.893-3.644 7.893-8.887m-18.502-.801c0-1.59.342-1.685 1.549-1.743.12-.115.12-.517 0-.632-.986.02-1.468.039-2.413.039-1.086 0-1.79-.02-2.795-.039-.12.115-.12.517 0 .632 1.608.058 1.95.153 1.95 1.743v8.463c0 3.447-1.045 3.983-1.709 3.983a.918.918 0 0 1-.704-.345c-.2-.249-.281-.65-.904-.65-.282 0-.885.401-.885.822 0 .69 1.066 1.034 1.508 1.034.905 0 1.528-.153 2.352-.823.865-.708 2.051-1.704 2.051-4.442v-8.042"/></svg>
